symbolic/64x64/apps/rosegarden.svg

<svg xmlns="http://www.w3.org/2000/svg" width="64" height="64" version="1">
 <path style="opacity:0.2" d="M 39.369756,5.4924793 C 31.751948,3.4502853 23.973072,7.9411745 21.931154,15.560813 14.311373,13.519148 6.5342744,18.009561 4.492557,25.629145 c -2.0419822,7.6186 2.448907,15.397476 10.068545,17.43939 -2.041717,7.619586 2.448835,15.397284 10.068438,17.438996 7.619606,2.04171 15.397284,-2.448836 17.438996,-10.06844 7.619586,2.041716 15.397282,-2.448834 17.438994,-10.06844 C 61.549242,32.751047 57.058696,24.973369 49.43909,22.931657 51.480808,15.312071 46.990256,7.5343747 39.37065,5.4926627 Z"/>
 <path style="fill:#c53b7c" d="M 39.369756,4.4925622 C 31.751948,2.4503682 23.973072,6.9412574 21.931154,14.560896 14.311373,12.519231 6.5342744,17.009644 4.492557,24.629228 c -2.0419822,7.6186 2.448907,15.397476 10.068545,17.43939 -2.041717,7.619586 2.448835,15.397284 10.068438,17.438996 7.619606,2.04171 15.397284,-2.448836 17.438996,-10.06844 C 49.688122,51.48089 57.465818,46.99034 59.50753,39.370734 61.549242,31.75113 57.058696,23.973452 49.43909,21.93174 51.480808,14.312154 46.990256,6.5344576 39.37065,4.4927456 Z"/>
 <path style="fill:#ffffff;opacity:0.1" d="M 35.107422 4.0097656 C 29.037351 4.2437889 23.590699 8.3695905 21.931641 14.560547 C 14.31186 12.518882 6.5339049 17.009322 4.4921875 24.628906 C 4.0980008 26.09961 3.9532655 27.575399 4.0214844 29.015625 C 4.0475245 27.895541 4.1886839 26.761273 4.4921875 25.628906 C 6.5339049 18.009322 14.31186 13.518882 21.931641 15.560547 C 23.973559 7.9409084 31.751333 3.4499935 39.369141 5.4921875 L 39.371094 5.4921875 C 45.519802 7.139765 49.624932 12.524213 49.910156 18.544922 C 50.059225 12.12869 45.858184 6.2304361 39.371094 4.4921875 L 39.369141 4.4921875 C 37.940802 4.1092761 36.508207 3.9557603 35.107422 4.0097656 z M 49.640625 21.996094 C 49.578738 22.307882 49.522965 22.619978 49.439453 22.931641 C 55.588161 24.579218 59.69329 29.963661 59.978516 35.984375 C 60.126 29.636223 56.011018 23.802793 49.640625 21.996094 z M 14.359375 43.003906 C 14.129855 44.160227 14.037016 45.313385 14.089844 46.445312 C 14.116565 45.328333 14.257965 44.197578 14.560547 43.068359 C 14.491708 43.049912 14.427701 43.023286 14.359375 43.003906 z"/>
 <g style="opacity:0.2" transform="matrix(0.98202868,1.7009085,-1.7009085,0.98202868,43.502078,-9.9270779)">
  <path d="m 16,4 c -3.324,0 -6,2.676 -6,6 -3.324,0 -6,2.676 -6,6 0,3.324 2.676,6 6,6 0,3.324 2.676,6 6,6 3.324,0 6,-2.676 6,-6 3.324,0 6,-2.676 6,-6 0,-3.324 -2.676,-6 -6,-6 0,-3.324 -2.676,-6 -6,-6 z"/>
 </g>
 <g style="fill:#dc6ca0" transform="matrix(0.98202868,1.7009085,-1.7009085,0.98202868,43.502078,-10.926995)">
  <path d="m 16,4 c -3.324,0 -6,2.676 -6,6 -3.324,0 -6,2.676 -6,6 0,3.324 2.676,6 6,6 0,3.324 2.676,6 6,6 3.324,0 6,-2.676 6,-6 3.324,0 6,-2.676 6,-6 0,-3.324 -2.676,-6 -6,-6 0,-3.324 -2.676,-6 -6,-6 z"/>
 </g>
 <g style="opacity:0.2" transform="matrix(1.7372675,0.4655039,-0.4655039,1.7372675,10.953527,0.36147623)">
  <path transform="translate(0,-1.5)" d="M 16,11.5 A 3,3 0 0 0 13.268,13.268 3,3 0 0 0 11.5,16 3,3 0 0 0 13.268,18.732 3,3 0 0 0 16,20.5 3,3 0 0 0 18.732,18.732 3,3 0 0 0 20.5,16 3,3 0 0 0 18.732,13.268 3,3 0 0 0 16,11.5 Z"/>
 </g>
 <g style="fill:#f0a9ca" transform="matrix(1.7372675,0.4655039,-0.4655039,1.7372675,10.953527,-0.63844086)">
  <path transform="translate(0,-1.5)" d="M 16,11.5 A 3,3 0 0 0 13.268,13.268 3,3 0 0 0 11.5,16 3,3 0 0 0 13.268,18.732 3,3 0 0 0 16,20.5 3,3 0 0 0 18.732,18.732 3,3 0 0 0 20.5,16 3,3 0 0 0 18.732,13.268 3,3 0 0 0 16,11.5 Z"/>
 </g>
 <g style="fill:#ffffff;opacity:0.1" transform="matrix(0.98202868,1.7009085,-1.7009085,0.98202868,43.502078,-10.926995)">
  <path style="fill:#ffffff" transform="matrix(0.25457843,-0.44093887,0.44093887,0.25457843,-6.256554,21.963535)" d="M 25.796875 10.003906 C 23.89811 10.055201 21.981662 10.569761 20.214844 11.589844 C 16.261297 13.872445 14.141163 18.069168 14.333984 22.320312 C 14.489738 18.421576 16.571915 14.693108 20.214844 12.589844 C 25.868664 9.3255804 33.048237 11.248524 36.3125 16.902344 C 41.96632 13.63808 49.145893 15.561024 52.410156 21.214844 C 53.39006 22.912072 53.894203 24.747245 53.978516 26.572266 C 54.062584 24.423257 53.569405 22.222704 52.410156 20.214844 C 49.145893 14.561024 41.96632 12.63808 36.3125 15.902344 C 34.068319 12.015343 29.974158 9.8910571 25.796875 10.003906 z M 15.517578 27.935547 C 11.814674 30.265888 9.8315802 34.317087 10.021484 38.427734 C 10.174139 34.525472 12.256385 30.792514 15.902344 28.6875 C 15.760002 28.44096 15.640311 28.187438 15.517578 27.935547 z M 48.482422 37.064453 C 48.352838 37.146004 48.231436 37.235261 48.097656 37.3125 C 49.079318 39.012774 49.58309 40.851428 49.666016 42.679688 C 49.74145 40.791443 49.36075 38.867099 48.482422 37.064453 z"/>
 </g>
 <g style="fill:#ffffff;opacity:0.2" transform="matrix(1.7372675,0.4655039,-0.4655039,1.7372675,10.953527,-0.63844086)">
  <path style="fill:#ffffff" transform="matrix(0.5370569,-0.14390535,0.14390535,0.5370569,-5.7907922,1.9191502)" d="M 32.492188 24.003906 A 5.3956585 5.3956585 0 0 0 28.525391 25.982422 A 5.3956585 5.3956585 0 0 0 24.181641 29.904297 A 5.3956585 5.3956585 0 0 0 24.029297 31.791016 A 5.3956585 5.3956585 0 0 1 24.181641 30.904297 A 5.3956585 5.3956585 0 0 1 28.525391 26.982422 A 5.3956585 5.3956585 0 0 1 34.095703 25.181641 A 5.3956585 5.3956585 0 0 1 38.017578 29.525391 A 5.3956585 5.3956585 0 0 1 39.970703 33.207031 A 5.3956585 5.3956585 0 0 0 38.017578 28.525391 A 5.3956585 5.3956585 0 0 0 34.095703 24.181641 A 5.3956585 5.3956585 0 0 0 32.492188 24.003906 z"/>
 </g>
</svg>

<svg xmlns="http://www.w3.org/2000/svg" width="64" height="64" version="1"><path style="opacity:.2" d="M39.37 5.492A14.208 14.208 0 0 0 21.93 15.561 14.207 14.207 0 0 0 4.493 25.629 14.208 14.208 0 0 0 14.56 43.07 14.208 14.208 0 0 0 24.63 60.508a14.208 14.208 0 0 0 17.439-10.069 14.208 14.208 0 0 0 17.439-10.068 14.208 14.208 0 0 0-10.069-17.44A14.208 14.208 0 0 0 39.371 5.494z"/><path style="fill:#c53b7c" d="M39.37 4.493A14.208 14.208 0 0 0 21.93 14.56 14.207 14.207 0 0 0 4.493 24.629 14.208 14.208 0 0 0 14.56 42.07 14.208 14.208 0 0 0 24.63 59.508a14.208 14.208 0 0 0 17.439-10.069 14.208 14.208 0 0 0 17.439-10.068 14.208 14.208 0 0 0-10.069-17.44A14.208 14.208 0 0 0 39.371 4.494z"/><path style="fill:#fff;opacity:.1" d="M35.107 4.01a14.21 14.21 0 0 0-13.175 10.55A14.208 14.208 0 0 0 4.492 24.63a14.296 14.296 0 0 0-.47 4.387c.026-1.12.167-2.255.47-3.387a14.208 14.208 0 0 1 17.44-10.068A14.207 14.207 0 0 1 39.369 5.492h.002a14.204 14.204 0 0 1 10.54 13.053A14.194 14.194 0 0 0 39.37 4.492h-.002a14.303 14.303 0 0 0-4.262-.482zm14.534 17.986c-.062.312-.118.624-.202.936a14.204 14.204 0 0 1 10.54 13.052A14.188 14.188 0 0 0 49.64 21.996zM14.359 43.004a14.258 14.258 0 0 0-.27 3.441 14.32 14.32 0 0 1 .472-3.377c-.07-.018-.133-.045-.202-.064z"/><path d="M16 4c-3.324 0-6 2.676-6 6-3.324 0-6 2.676-6 6s2.676 6 6 6c0 3.324 2.676 6 6 6s6-2.676 6-6c3.324 0 6-2.676 6-6s-2.676-6-6-6c0-3.324-2.676-6-6-6z" transform="scale(1.96404) rotate(60 15.452 16.655)" style="opacity:.2"/><path d="M16 4c-3.324 0-6 2.676-6 6-3.324 0-6 2.676-6 6s2.676 6 6 6c0 3.324 2.676 6 6 6s6-2.676 6-6c3.324 0 6-2.676 6-6s-2.676-6-6-6c0-3.324-2.676-6-6-6z" transform="scale(1.96404) rotate(60 15.893 16.4)" style="fill:#dc6ca0"/><path transform="scale(1.79855) rotate(15 7.979 23.98)" d="M16 11.5a3 3 0 0 0-2.732 1.768A3 3 0 0 0 11.5 16a3 3 0 0 0 1.768 2.732A3 3 0 0 0 16 20.5a3 3 0 0 0 2.732-1.768A3 3 0 0 0 20.5 16a3 3 0 0 0-1.768-2.732A3 3 0 0 0 16 11.5z" style="opacity:.2"/><path transform="scale(1.79855) rotate(15 10.09 23.702)" d="M16 11.5a3 3 0 0 0-2.732 1.768A3 3 0 0 0 11.5 16a3 3 0 0 0 1.768 2.732A3 3 0 0 0 16 20.5a3 3 0 0 0 2.732-1.768A3 3 0 0 0 20.5 16a3 3 0 0 0-1.768-2.732A3 3 0 0 0 16 11.5z" style="fill:#f0a9ca"/><g style="fill:#fff;opacity:.1"><path style="fill:#fff" d="M25.797 10.004a11.774 11.774 0 0 0-5.582 1.586 11.749 11.749 0 0 0-5.881 10.73 11.742 11.742 0 0 1 5.88-9.73 11.758 11.758 0 0 1 16.099 4.312 11.758 11.758 0 0 1 16.097 4.313 11.765 11.765 0 0 1 1.569 5.357c.084-2.149-.41-4.35-1.569-6.357a11.758 11.758 0 0 0-16.097-4.313 11.757 11.757 0 0 0-10.516-5.898zm-10.28 17.932a11.74 11.74 0 0 0-5.496 10.492 11.742 11.742 0 0 1 5.881-9.74c-.142-.247-.262-.5-.384-.752zm32.965 9.128c-.13.082-.25.171-.384.248a11.764 11.764 0 0 1 1.568 5.368 11.72 11.72 0 0 0-1.184-5.616z"/></g><g style="fill:#fff;opacity:.2"><path style="fill:#fff" d="M32.492 24.004a5.396 5.396 0 0 0-3.967 1.978 5.396 5.396 0 0 0-4.343 3.922 5.396 5.396 0 0 0-.153 1.887 5.396 5.396 0 0 1 .153-.887 5.396 5.396 0 0 1 4.343-3.922 5.396 5.396 0 0 1 5.57-1.8 5.396 5.396 0 0 1 3.923 4.343 5.396 5.396 0 0 1 1.953 3.682 5.396 5.396 0 0 0-1.953-4.682 5.396 5.396 0 0 0-3.922-4.343 5.396 5.396 0 0 0-1.604-.178z"/></g></svg>
